icons/clipboard-star.svg

<svg xmlns="http://www.w3.org/2000/svg" width="24" height="24" viewBox="0 0 24 24">
  <path d="M16,1 C16.5128358,1 16.9355072,1.38604019 16.9932723,1.88337887 L17,2 L17,3 L19,3 C20.1045695,3 21,3.8954305 21,5 L21,21 C21,22.1045695 20.1045695,23 19,23 L5,23 C3.8954305,23 3,22.1045695 3,21 L3,5 C3,3.8954305 3.8954305,3 5,3 L7,3 L7,2 C7,1.48716416 7.38604019,1.06449284 7.88337887,1.00672773 L8,1 L16,1 Z M12.2212829,10.1814077 C11.973656,10.0591965 11.6738431,10.160866 11.551632,10.4084929 L11.551632,10.4084929 L10.6774832,12.1797118 L8.72282709,12.4637399 C8.61400857,12.4795522 8.51343737,12.5307958 8.43668307,12.6095376 C8.24393246,12.8072794 8.24797861,13.123836 8.4457204,13.3165866 L8.4457204,13.3165866 L9.86012284,14.6952882 L9.52622772,16.6420462 C9.50763929,16.750425 9.52529663,16.861909 9.57646617,16.9592393 C9.70496657,17.2036616 10.0072801,17.2976348 10.2517024,17.1691344 L10.2517024,17.1691344 L12,16.25 L13.7482976,17.1691344 C13.8456278,17.220304 13.9571118,17.2379613 14.0654907,17.2193729 C14.3376589,17.1726924 14.5204528,16.9142144 14.4737723,16.6420462 L14.4737723,16.6420462 L14.1398772,14.6952882 L15.5542796,13.3165866 C15.6330214,13.2398323 15.684265,13.1392611 15.7000773,13.0304426 C15.7397861,12.7571702 15.5504453,12.5034487 15.2771729,12.4637399 L15.2771729,12.4637399 L13.3225168,12.1797118 L12.448368,10.4084929 C12.3997029,10.3098866 12.3198892,10.2300728 12.2212829,10.1814077 Z M15,3 L9,3 L9,5 L15,5 L15,3 Z"/>
</svg>

<svg xmlns="http://www.w3.org/2000/svg" viewBox="0 0 24 24">
  <path d="M16 1a1 1 0 0 1 1 .88V3h2a2 2 0 0 1 2 2v16a2 2 0 0 1-2 2H5a2 2 0 0 1-2-2V5c0-1.1.9-2 2-2h2V2a1 1 0 0 1 .88-1H16zm-3.78 9.18a.5.5 0 0 0-.67.23l-.87 1.77-1.96.28a.5.5 0 0 0-.27.86l1.41 1.38-.33 1.94a.5.5 0 0 0 .72.53l1.75-.92 1.75.92a.5.5 0 0 0 .72-.53l-.33-1.94 1.41-1.38a.5.5 0 0 0-.27-.86l-1.96-.28-.87-1.77a.5.5 0 0 0-.23-.23zM15 3H9v2h6V3z"/>
</svg>
